!!!!SEGMENT: pl-wumfc--n18053--003_noskowski-zygmunt--livia-quintilla-prolog-scena-ii.krn
!!!cenid: 18xx:4219
!!!COM: Noskowski, Zygmunt
!!!COM-rismID: pe106604
!!!CDT: 1846/05/02-1909/07/23
!!!CNT: Polish
!!!GTL: Livia Quintilla
!!!OTL: Prolog - Scena II
!!!PDT: 1898
!!!AGN:
!!!SMS-siglum: PL-Wumfc
!!!SMS-shelfmark: N18053
!!!SMS-variant:
!!!SMS-altvar:
!!!SMS-shelfwork: 003 G
!!!NIFC-rismSourceID: 1001161204
!!!NIFC-rismChildID: 1001161204
!!!NIFC-islandoraID: pl-wumfc:1491
!!!URL-pdf-islandora: https://repozytorium.nifc.pl/islandora/object/pl-wumfc:1491/datastream/PDF/view
!!!URL-scan: https://polish.musicsources.pl/pl/lokalizacje/galeria/druki-muzyczne/11843-livia-quintilla/12 @EN{Scan on Polish Music Sources Website} @PL{Skany w portalu Dziedzictwo Muzyki Polskiej w otwartym dostępie}
!!!ONB-nifc: Skany 0012-0013
!!!AIN: 2 piano 1 vox
!!!key: e
**kern	**fing	**kern	**dynam	**kern	**text	**dynam
*part3	*part3	*part2	*part2	*part1	*part1	*part1
*staff3	*	*staff2	*	*staff1	*staff1	*
*I"PIANO.	*	*I"PIANO.	*	*I"SILVA. (SAM).	*	*
*I'pf	*	*I'pf	*	*I'S.	*	*
*ICklav	*	*ICklav	*	*ICvox	*	*
*Ipiano	*	*Ipiano	*	*Ivox	*	*
*clefF4	*	*clefG2	*	*clefF4	*	*
*k[f#]	*	*k[f#]	*	*k[f#]	*	*
*e:	*	*e:	*	*e:	*	*
*M4/4	*	*M4/4	*	*M4/4	*	*
*met(c)	*	*met(c)	*	*met(c)	*	*
=1	=1	=1	=1	=1	=1	=1
!	!	!LO:TX:a:B:t=Molto moderato.	!	!LO:TX:a:B:t=Molto moderato.	!	!
[1BBB [<1C	.	[>1F#<^^< [>1A< [1c [1d#X	p	4r	.	.
.	.	.	.	8.r	.	.
!	!	!	!	!	!	!LO:DY:a
.	.	.	.	16c\	Sza-	f
.	.	.	.	[2d#X\	-lo-	.
=2	=2	=2	=2	=2	=2	=2
2BBB\] 2C]	.	2F#</] 2A<] 2c] 2d#]	.	2d#\]	.	.
2r;	.	2r;	.	[4D#X\	-ny!	.
.	.	.	.	8D#\]	.	.
.	.	.	.	8r;	.	.
*clefG2	*	*	*	*	*	*
=3||	=3||	=3||	=3||	=3||	=3||	=3||
!	!	!LO:TX:a:B:t=Allegro non troppo, ma feroce.	!	!LO:TX:a:B:t=Allegro non troppo, ma feroce.	!	!
(16b\LL 16ff#	.	(16aa\LL 16ccc 16ddd#X	f	1r	.	.
16f#\	.	16eee\	.	.	.	.
16b\ 16ff#	.	16aa\ 16ccc 16ddd#	.	.	.	.
16f#\JJ	.	16eee\JJ	.	.	.	.
16b\LL 16ff#	.	16aa\LL 16ccc 16ddd#	.	.	.	.
16f#\	.	16eee\	.	.	.	.
16b\ 16ff#	.	16aa\ 16ccc 16ddd#	.	.	.	.
16f#\JJ	.	16eee\JJ	.	.	.	.
8b\) 8ff#	.	16aa\LL 16ccc 16ddd#	.	.	.	.
.	.	16eee\	.	.	.	.
8r	.	16ggg\	.	.	.	.
.	.	16fff#\JJ	.	.	.	.
4r	.	16eee\LL	.	.	.	.
.	.	16ddd#\	.	.	.	.
.	.	16ccc\	.	.	.	.
.	.	16bb\JJ)	.	.	.	.
!!LO:LB:g=original	!	!	!	!	!	!
=4	=4	=4	=4	=4	=4	=4
(16f#/LL 16cc	.	(16ee\LL 16bb-X	.	1ryy	.	.
16c/	.	16ccc\	.	.	.	.
16f#/ 16cc	.	16ee\ 16bb-	.	.	.	.
16c/JJ	.	16ccc\JJ	.	.	.	.
16f#/LL 16cc	.	16ee\LL 16bb-	.	.	.	.
16c/	.	16ccc\	.	.	.	.
16f#/ 16cc	.	16ee\ 16bb-	.	.	.	.
16c/JJ	.	16ccc\JJ	.	.	.	.
8f#/) 8cc	.	16ee\LL 16bb-	.	.	.	.
.	.	16ccc\	.	.	.	.
8r	.	16ddd\	.	.	.	.
.	.	16ccc\JJ	.	.	.	.
4r	.	16bb-\LL	.	.	.	.
.	.	16aa\	.	.	.	.
.	.	16gg\	.	.	.	.
.	.	16ee\JJ)	.	.	.	.
*clefF4	*	*	*	*	*	*
=5	=5	=5	=5	=5	=5	=5
(16B\LL 16f#	.	(>16a\LL 16cc 16dd#X	.	1ryy	.	.
16F#\	.	16ee\	.	.	.	.
16B\ 16f#	.	16a\ 16cc 16dd#	.	.	.	.
16F#\JJ	.	16ee\JJ	.	.	.	.
16B\LL 16f#	.	16a\LL 16cc 16dd#	.	.	.	.
16F#\	.	16ee\	.	.	.	.
16B\ 16f#	.	16a\ 16cc 16dd#	.	.	.	.
16F#\JJ	.	16ee\JJ	.	.	.	.
8B\) 8f#	.	16a\LL 16cc 16dd#	.	.	.	.
.	.	16ee\	.	.	.	.
8r	.	16gg\	.	.	.	.
.	.	16ff#\JJ	.	.	.	.
4r	.	16ee\LL	.	.	.	.
.	.	16dd#\	.	.	.	.
.	.	16cc\	.	.	.	.
.	.	16b\JJ)	.	.	.	.
=6	=6	=6	=6	=6	=6	=6
(16F#X\LL 16c	.	(16e/LL 16b-X	.	1ryy	.	.
16C\	.	16cc/	.	.	.	.
16F#\ 16c	.	16e/ 16b-	.	.	.	.
16C\JJ	.	16cc/JJ	.	.	.	.
16F#\LL 16c	.	16e/LL 16b-	.	.	.	.
16C\	.	16cc/	.	.	.	.
16F#\ 16c	.	16e/ 16b-	.	.	.	.
16C\JJ	.	16cc/JJ	.	.	.	.
8F#\) 8c	.	16e/LL 16b-	.	.	.	.
.	.	16cc/	.	.	.	.
8r	.	16dd/	.	.	.	.
.	.	16cc/JJ	.	.	.	.
4r	.	16b-/LL	.	.	.	.
.	.	16a/	.	.	.	.
.	.	16g/	.	.	.	.
.	.	16e/JJ)	.	.	.	.
!!LO:LB:g=original	!	!	!	!	!	!
=7	=7	=7	=7	=7	=7	=7
(16F#/LL	.	(16A/LL 16d#X	.	1ryy	.	.
16BB/	.	16e/	.	.	.	.
16F#/	.	16A/ 16d#	.	.	.	.
16FF#/JJ)	.	16e/JJ)	.	.	.	.
(16Fn^\LL	.	(16A^/LL 16dn	.	.	.	.
16D\	.	16e/	.	.	.	.
16F\	.	16A/ 16d	.	.	.	.
16BB\JJ)	.	16e/JJ)	.	.	.	.
(16F#X/LL	.	(16A^/LL 16d#X	.	.	.	.
16BB/	.	16e/	.	.	.	.
16F#/	.	16A/ 16d#	.	.	.	.
16FF#/JJ)	.	16e/JJ)	.	.	.	.
(16Fn^\LL	.	(16A^/LL 16dn	.	.	.	.
16D\	.	16e/	.	.	.	.
16F\	.	16A/ 16d	.	.	.	.
16BB\JJ)	.	16e/JJ)	.	.	.	.
=8	=8	=8	=8	=8	=8	=8
(16F#X\LL	.	N(>16A/LL 16d#X	.	1ryy	.	.
16BB\JJ)	.	16e/	.	.	.	.
8r	.	16d#/	.	.	.	.
.	.	16c/JJ	.	.	.	.
4r	.	16B/LL	.	.	.	.
.	.	16c/	.	.	.	.
.	.	16A/	.	.	.	.
.	.	16G/JJ	.	.	.	.
16F#>\LL	.	4ryy	.	.	.	.
*	*below	*	*	*	*	*
16E/	1	.	.	.	.	.
16D#X/	2	.	.	.	.	.
16C/JJ	3	.	.	.	.	.
16BB/LL	.	4r	.	.	.	.
16AA/	.	.	.	.	.	.
16GG/	.	.	.	.	.	.
16FF#/JJN)	4	.	.	.	.	.
*	*	*clefF4	*	*	*	*
=9	=9	=9	=9	=9	=9	=9
(16EE/LL	.	1E 1G 1B	p	1ryy	.	.
16DD#X/	.	.	.	.	.	.
16EE/	.	.	.	.	.	.
16BBB/JJ	.	.	.	.	.	.
16EE/LL	.	.	.	.	.	.
16FF#/	.	.	.	.	.	.
16GG/	.	.	.	.	.	.
16AA/JJ	.	.	.	.	.	.
!	!	!	!LO:HP:b	!	!	!
16BB/LL	.	.	<	.	.	.
16AA#X/	.	.	.	.	.	.
16BB/	.	.	.	.	.	.
16C/JJ	.	.	.	.	.	.
16BB/LL	.	.	[ >	.	.	.
16AAn/	.	.	.	.	.	.
16GG/	.	.	.	.	.	.
16FF#/JJ)	.	.	]]	.	.	.
!!LO:LB:g=original	!	!	!	!	!	!	!
=10	=10	=10	=10	=10	=10	=10
*	*	*^	*	*	*	*
!	!	!	!	!	!LO:TX:a:t=Silva.	!	!
(16EE/LL	.	(4B/	2E\ 2G	.	4r	.	.
16DD#X/	.	.	.	.	.	.	.
16EE/	.	.	.	.	.	.	.
16BBB/JJ	.	.	.	.	.	.	.
16EE/LL	.	8c/L	.	.	8c\	W ja-	.
16FF#/	.	.	.	.	.	.	.
16GG/	.	8B/J)	.	.	8B\	-kąż	.
16AA/JJ	.	.	.	.	.	.	.
*	*	*clefG2	*	*	*	*	*
16BB/LL	.	(4.g/	2G\ 2B	.	4.G\	wpa-	.
16AA#X/	.	.	.	.	.	.	.
16BB/	.	.	.	.	.	.	.
16C/JJ	.	.	.	.	.	.	.
16BB/LL	.	.	.	.	.	.	.
16AAn/	.	.	.	.	.	.	.
16GG/	.	8d#X/)	.	.	8D#X\	-dasz	.
16FF#/JJ)	.	.	.	.	.	.	.
*	*	*v	*v	*	*	*	*
=11	=11	=11	=11	=11	=11	=11
(16EE/LL	.	[1G [1B [1e	.	[1E	toń!	.
16DD#X/	.	.	.	.	.	.
16EE/	.	.	.	.	.	.
16BBB/JJ	.	.	.	.	.	.
16EE/LL	.	.	.	.	.	.
16FF#/	.	.	.	.	.	.
16GG/	.	.	.	.	.	.
16AA/JJ	.	.	.	.	.	.
16BB/LL	.	.	.	.	.	.
16AA#X/	.	.	.	.	.	.
16BB/	.	.	.	.	.	.
16C/JJ	.	.	.	.	.	.
16BB/LL	.	.	.	.	.	.
16AAn/	.	.	.	.	.	.
16GG/	.	.	.	.	.	.
16FF#/JJ)	.	.	.	.	.	.
=12	=12	=12	=12	=12	=12	=12
*	*	*^	*	*	*	*
(16EE/LL	.	4G/] 4B] 4e]	4rcyy	.	4E\]	.	.
16DD#X/	.	.	.	.	.	.	.
16EE/	.	.	.	.	.	.	.
16BBB/JJ	.	.	.	.	.	.	.
16EE/LL	.	(8g/L	2G\ 2B	.	8G\	z ser-	.
16FF#/	.	.	.	.	.	.	.
16GG/	.	8f#/J	.	.	8F#\	-cem	.
16AA/JJ	.	.	.	.	.	.	.
16BB/LL	.	4e/)	.	.	4E\	nie-	.
16AA#X/	.	.	.	.	.	.	.
16BB/	.	.	.	.	.	.	.
16C/JJ	.	.	.	.	.	.	.
16BB/LL	.	4dn/	4G\ 4B	.	4Dn\	-wol-	.
16AAn/	.	.	.	.	.	.	.
16GG/	.	.	.	.	.	.	.
16FF#/JJ)	.	.	.	.	.	.	.
*	*	*v	*v	*	*	*	*
!!LO:LB:g=original	!	!	!	!	!	!
=13	=13	=13	=13	=13	=13	=13
(16EE/LL	.	4A/ 4c	.	(4C/	-ni-	.
16DD#X/	.	.	.	.	.	.
16EE/	.	.	.	.	.	.
16BBB/JJ	.	.	.	.	.	.
16EE/LL	.	4c/ 4e 4b	.	4B\)	.	.
16FF#/	4	.	.	.	.	.
16GG/	.	.	.	.	.	.
16AA/JJ	.	.	.	.	.	.
16C/LL	1	[2c/ [2e [2a	.	[2A\	-czem	.
16BB/	2	.	.	.	.	.
16C/	.	.	.	.	.	.
16Dn/JJ	2	.	.	.	.	.
16C/LL	1	.	.	.	.	.
16BB/	.	.	.	.	.	.
16AA/	.	.	.	.	.	.
16GG/JJ)	1	.	.	.	.	.
=14	=14	=14	=14	=14	=14	=14
(16FF#/LL	.	4c/] 4e] 4a]	.	4A\]	.	.
16EE/	.	.	.	.	.	.
16FF#/	.	.	.	.	.	.
16BBB/JJ	.	.	.	.	.	.
16FF#/LL	.	8c/L 8e 8b	.	8B\	Ty	.
16GG/	.	.	.	.	.	.
16AA/	.	8c/J 8e 8cc	.	8c\	do	.
16BB/JJ	.	.	.	.	.	.
16C/LL	.	4.c/ 4.e 4.a	.	4.A\	stóp	.
16BB/	.	.	.	.	.	.
16AA/	.	.	.	.	.	.
16GG/JJ	.	.	.	.	.	.
16FF#/LL	.	.	.	.	.	.
16EE/	.	.	.	.	.	.
16DD/	.	8A/ 8e 8g	.	8G\	twej	.
16CC/JJ)	.	.	.	.	.	.
=15	=15	=15	=15	=15	=15	=15
*	*	*^	*	*	*	*
(16BBB/LL	.	4d#X/ 4f#	2A\	.	(4F#\	pa-	.
16AAA#X/	.	.	.	.	.	.	.
16BBB/	.	.	.	.	.	.	.
16FFF#/JJ	.	.	.	.	.	.	.
16BBB/LL	.	4c/ 4e	.	.	4E\)	.	.
16CC/	.	.	.	.	.	.	.
16DD#X/	.	.	.	.	.	.	.
16EE/JJ	.	.	.	.	.	.	.
16FF#/LL	.	[2B/ [2d#	[2A\	.	[2D#X\	-ni.	.
16EE#X/	.	.	.	.	.	.	.
16FF#/	.	.	.	.	.	.	.
16GG/JJ	.	.	.	.	.	.	.
16FF#/LL	.	.	.	.	.	.	.
16EEn/	.	.	.	.	.	.	.
16DD#/	.	.	.	.	.	.	.
16CC/JJ)	.	.	.	.	.	.	.
!!LO:PB:g=original	!	!	!	!	!	!	!
=16	=16	=16	=16	=16	=16	=16	=16
(16BBB/LL	.	4A/] 4B] 4d#]	4ryy	.	4D#\]	.	.
16AAA#X/	.	.	.	.	.	.	.
16BBB/	.	.	.	.	.	.	.
16FFF#/JJ	.	.	.	.	.	.	.
16BBB/LL	.	8g/L	4A\ 4c	.	8G\	kor-	.
16CC/	.	.	.	.	.	.	.
16DD#X/	.	8f#/J	.	.	8F#\	-nie	.
16EE/JJ	.	.	.	.	.	.	.
16FF#/LL	.	4B/ 4d#X	4A\	.	4D#X\	chy-	.
16EE#X/	.	.	.	.	.	.	.
16FF#/	.	.	.	.	.	.	.
16GG/JJ	.	.	.	.	.	.	.
*	*	*clefF4	*	*	*	*	*
16FF#/LL	.	4D#X\ 4A 4c	4rEEyy	.	4C/	-lisz	.
16EE#/	.	.	.	.	.	.	.
16FF#/	.	.	.	.	.	.	.
16BBB/JJ)	.	.	.	.	.	.	.
*	*	*v	*v	*	*	*	*
=17	=17	=17	=17	=17	=17	=17
(16EEn/LL	.	[1E [1G [1B	.	[1BB	skroń?	.
16DD#X/	.	.	.	.	.	.
16EE/	.	.	.	.	.	.
16BBB/JJ	.	.	.	.	.	.
16EE/LL	.	.	.	.	.	.
16FF#/	.	.	.	.	.	.
16GG/	.	.	.	.	.	.
16AA/JJ	.	.	.	.	.	.
16BB/LL	.	.	.	.	.	.
16AA#X/	.	.	.	.	.	.
16BB/	.	.	.	.	.	.
16C/JJ	.	.	.	.	.	.
16BB/LL	.	.	.	.	.	.
16AAn/	.	.	.	.	.	.
16GG/	.	.	.	.	.	.
16FF#/JJ)	.	.	.	.	.	.
=18	=18	=18	=18	=18	=18	=18
(16EE/LL	.	2E\] 2G] 2B]	.	2BB/]	.	.
16DD#X/	.	.	.	.	.	.
16EE/	.	.	.	.	.	.
16BBB/JJ	.	.	.	.	.	.
16EE/LL	.	.	.	.	.	.
16FF#/	.	.	.	.	.	.
16GG/	.	.	.	.	.	.
16AA/JJ	.	.	.	.	.	.
16BB/LL	.	4r	.	4r	.	.
16C/	.	.	.	.	.	.
16BB/	.	.	.	.	.	.
16AA/JJ	.	.	.	.	.	.
*	*	*clefG2	*	*	*	*
!	!	!	!	!	!	!LO:DY:a
16GG/LL	.	4G/ 4g	.	4E\	Sza-	f
16AA/	.	.	.	.	.	.
16GG/	.	.	.	.	.	.
16FF#/JJ)	.	.	.	.	.	.
!!LO:LB:g=original	!	!	!	!	!	!
=19	=19	=19	=19	=19	=19	=19
(16FFn/LL	.	2d/ 2a 2dd	f	(2d\	-lo-	.
16EE/	.	.	.	.	.	.
16FF/	.	.	.	.	.	.
16AAA/JJ	.	.	.	.	.	.
16EE/LL	.	.	.	.	.	.
16FF/	.	.	.	.	.	.
16GG/	.	.	.	.	.	.
16FF/JJ)	.	.	.	.	.	.
(16EE/LL	.	2c#X/ 2e 2g#X 2cc#X	.	2c#X\)	.	.
16DD#X/	.	.	.	.	.	.
16EE/	.	.	.	.	.	.
16GGG#X/JJ	.	.	.	.	.	.
16DD#/LL	.	.	.	.	.	.
16EE/	.	.	.	.	.	.
16FF/	.	.	.	.	.	.
16EE/JJ)	.	.	.	.	.	.
=20	=20	=20	=20	=20	=20	=20
(16DD#X/LL	.	2cn/ 2fn 2an 2ccn	.	2cn\	-ny	.
16DDn/	.	.	.	.	.	.
16DD#X/	.	.	.	.	.	.
16AAA/JJ	.	.	.	.	.	.
16BBB/LL	.	.	.	.	.	.
16CC/	.	.	.	.	.	.
16DDn/	.	.	.	.	.	.
16DD#X/JJ)	.	.	.	.	.	.
(16EE/LL	.	2c/ 2e 2a 2cc	.	4r	.	.
16DD#/	.	.	.	.	.	.
16EE/	.	.	.	.	.	.
16AAA/JJ	.	.	.	.	.	.
16BBB/LL	.	.	.	4E\	Sza-	.
16CC/	.	.	.	.	.	.
16DDn/	.	.	.	.	.	.
16EE/JJ)	.	.	.	.	.	.
=21	=21	=21	=21	=21	=21	=21
(16EE#X/LL	.	2c#X/ 2g#X 2cc#X	.	(2c#X\	-lo-	.
16DD#X/	.	.	.	.	.	.
16EE#/	.	.	.	.	.	.
16CC#X/JJ	.	.	.	.	.	.
16GGG#X/LL	.	.	.	.	.	.
16CC#/	.	.	.	.	.	.
16DD#/	.	.	.	.	.	.
16EE#/JJ)	.	.	.	.	.	.
(16GGn/LL	.	2cn/ 2e 2gn 2ccn	.	2cn\)	.	.
16FF#/	.	.	.	.	.	.
16GG/	.	.	.	.	.	.
16EEn/JJ	.	.	.	.	.	.
16CCn/LL	.	.	.	.	.	.
16EE/	.	.	.	.	.	.
16FFn/	.	.	.	.	.	.
16GG/JJ)	.	.	.	.	.	.
!!LO:LB:g=original	!	!	!	!	!	!
=22	=22	=22	=22	=22	=22	=22
*	*	*^	*	*	*	*
(16AA/LL	.	4F#/ 4B 4d#X	2rcyy	.	4D#X\	-ny!	.
16GG/	.	.	.	.	.	.	.
16AA/	.	.	.	.	.	.	.
16BB/JJ	.	.	.	.	.	.	.
16Dn/LL	.	4ra	.	.	4r	.	.
16C/	.	.	.	.	.	.	.
16BB/	.	.	.	.	.	.	.
16AA/JJ	.	.	.	.	.	.	.
16BB/LL	.	(8f#/L	4d#\	p	8F#\	Sil-	.
16AA/	.	.	.	.	.	.	.
16GG/	.	8a/J	.	.	8A\	-va	.
16FF#/JJ	.	.	.	.	.	.	.
16EE/LL	.	8g/L	4A\	.	8G\	nie	.
16DD#X/	.	.	.	.	.	.	.
16CC#X/	.	8f#/J)	.	.	8F#\	za-	.
16DD#/JJ)	.	.	.	.	.	.	.
*	*	*v	*v	*	*	*	*
=23	=23	=23	=23	=23	=23	=23
(16EE/LL	.	2G/ 2B 2e	.	(2E\	-pom-	.
16FF#/	.	.	.	.	.	.
16GG/	.	.	.	.	.	.
16BB/JJ	.	.	.	.	.	.
16Dn/LL	.	.	.	.	.	.
16Cn/	.	.	.	.	.	.
16D/	.	.	.	.	.	.
16BB/JJ	.	.	.	.	.	.
16C/LL	.	4A/ 4c 4fn	.	4Fn\)	.	.
16BB/	.	.	.	.	.	.
16C/	.	.	.	.	.	.
16BB/JJ	.	.	.	.	.	.
16AA/LL	.	4c/ 4f 4a	.	4A\	-ni	.
16GG/	.	.	.	.	.	.
16AA/	.	.	.	.	.	.
16FFn/JJ)	.	.	.	.	.	.
!!LO:LB:g=original	!	!	!	!	!	!
=24	=24	=24	=24	=24	=24	=24
(16BB/LL	.	4d/ 4fn 4a	.	4A\	nig-	.
16AA/	.	.	.	.	.	.
16BB/	.	.	.	.	.	.
16FFn/JJ	.	.	.	.	.	.
16BB/LL	.	4d/ 4e 4g#X	.	4G#X\	-dy	.
16EE/	.	.	.	.	.	.
16E/	.	.	.	.	.	.
16D#X/JJ	.	.	.	.	.	.
16E/LL	.	4r	.	4r	.	.
16Dn/	.	.	.	.	.	.
16C/	.	.	.	.	.	.
16D/JJ	.	.	.	.	.	.
16C/LL	.	4G#X/ 4d 4e	.	4E\	Wczo-	.
16BB/	.	.	.	.	.	.
16AA/	.	.	.	.	.	.
16BB/JJ)	.	.	.	.	.	.
=25	=25	=25	=25	=25	=25	=25
(16C/LL	.	4A/ 4c 4e	.	(2A\	-raj-	.
16D/	.	.	.	.	.	.
16C/	.	.	.	.	.	.
16BB/JJ	.	.	.	.	.	.
16AA/LL	.	4c/ 4e 4a	.	.	.	.
16BB/	.	.	.	.	.	.
16C/	.	.	.	.	.	.
16D/JJ	.	.	.	.	.	.
16GG#X/LL	.	4d/ 4e 4b	.	4B\)	.	.
16FF#X/	.	.	.	.	.	.
16GG#/	.	.	.	.	.	.
16BB/JJ	.	.	.	.	.	.
16E/LL	.	4d/ 4e	.	4E\	-szej	.
16D/	.	.	.	.	.	.
16C/	.	.	.	.	.	.
16BB/JJ)	.	.	.	.	.	.
=26	=26	=26	=26	=26	=26	=26
*	*	*^	*	*	*	*
(<16AA#X/LL	.	4c#X/ 4e 4f# 4cc#X	2rcyy	.	4c#X\	ka-	.
16GG#X/	.	.	.	.	.	.	.
16AA#/	.	.	.	.	.	.	.
16C#X/JJ	.	.	.	.	.	.	.
16F#\LL	.	4A#X/ 4c# 4f#	.	.	4F#\	-ry,	.
16E\	.	.	.	.	.	.	.
16D\	.	.	.	.	.	.	.
16E\JJ	.	.	.	.	.	.	.
16D\LL	.	4ra	4rcyy	.	4r	.	.
16C#\	.	.	.	.	.	.	.
16E\	.	.	.	.	.	.	.
16D\JJ	.	.	.	.	.	.	.
16C#/LL	.	8.e/L 8.g#X	4c#\	.	8.G#X\	co	.
16FF#/	.	.	.	.	.	.	.
16C#/	.	.	.	.	.	.	.
16FF#/JJ)	.	16a#X/Jk	.	.	16A#X\	mu	.
!!LO:LB:g=original	!	!	!	!	!	!	!
=27	=27	=27	=27	=27	=27	=27	=27
(16BB/LL	.	2d/ 2f# 2b	2rcyy	<	(2B\	cia-	.
16AA#X/	.	.	.	.	.	.	.
16BB/	.	.	.	.	.	.	.
16C#X/JJ	.	.	.	.	.	.	.
16D/LL	.	.	.	.	.	.	.
16C#/	.	.	.	.	.	.	.
16BB/	.	.	.	.	.	.	.
16AAn/JJ	.	.	.	.	.	.	.
!	!	!LO:TX:b:i:t=rit.	!	!	!	!	!
16GG/LL	.	4e/ 4g 4b 4ee	4rcyy	[	4e\)	.	.
16FF#/	.	.	.	.	.	.	.
16EE/	.	.	.	.	.	.	.
16FF#/JJ	.	.	.	.	.	.	.
16GG/LL	.	8dd/L	4d\ 4g	.	(8d\L	-ło	.
16FF#/	.	.	.	.	.	.	.
16GG/	.	8cc#X/J	.	.	8c#X\J)	.	.
16AA/JJ)	.	.	.	.	.	.	.
*	*	*v	*v	*	*	*	*
=28	=28	=28	=28	=28	=28	=28
(16BB-X/LL	.	2d/ 2fn 2b-X 2dd	.	(2d\	ra-	.
16BBB-X/	.	.	.	.	.	.
16DD/	.	.	.	.	.	.
16EE-X/JJ	.	.	.	.	.	.
16FFn/LL	.	.	.	.	.	.
16GG/	.	.	.	.	.	.
16AA/	.	.	.	.	.	.
16BB-/JJ)	.	.	.	.	.	.
16r	.	2A#X/ 2e 2a#X	.	([4A#X\	.	.
(16FF#X/LL	.	.	.	.	.	.
16AA#X/	.	.	.	.	.	.
16BBn/JJ	.	.	.	.	.	.
16C#X\LL	.	.	.	8.A#\L]	.	.
16D\	.	.	.	.	.	.
16En\	.	.	.	.	.	.
16F#\JJ)	.	.	.	16c#X\Jk))	.	.
!!LO:LB:g=original	!	!	!	!	!	!
=29||	=29||	=29||	=29||	=29||	=29||	=29||
*M3/4	*	*M3/4	*	*M3/4	*	*
!	!	!LO:TX:a:B:t=Moderato.	!	!LO:TX:a:B:t=Moderato.	!	!
8BB/	.	8B/ 8d 8g	.	2B\	-ni.	.
.	.	(8qaa#X/	f	.	.	.
8r	.	8b\L) 8bb	.	.	.	.
.	.	(8qaa#/	.	.	.	.
4r	.	8b\) 8bb	.	.	.	.
.	.	(8qaa#/	.	.	.	.
.	.	8b\) 8bb	.	.	.	.
.	.	(8qaa#/	.	.	.	.
8r	.	8b\) 8bb	.	4r	.	.
*clefG2	*	*	*	*	*	*
.	.	(8qaa#/	.	.	.	.
8d'/ 8f#	.	8b\J) 8bb	.	.	.	.
=30	=30	=30	=30	=30	=30	=30
.	.	(8qaa#X/	.	.	.	.
!	!	!	!	!LO:N:vis=1	!	!
8f#'/L 8an	.	8b\L) 8bb	.	2.r	.	.
.	.	(8qaa#/	.	.	.	.
8d'/J 8f#	.	8b\) 8bb	.	.	.	.
.	.	(8qaa#/	.	.	.	.
(16f#/LL 16a	.	8b\) 8bb	.	.	.	.
16e/ 16g	.	.	.	.	.	.
.	.	(8qaa#/	.	.	.	.
16d/ 16f#	.	8b\) 8bb	.	.	.	.
16e/JJ) 16g	.	.	.	.	.	.
.	.	(8qaa#/	.	.	.	.
4f#^/ 4a	.	8b\) 8bb	.	.	.	.
.	.	(8qaa#/	.	.	.	.
.	.	8b\J) 8bb	.	.	.	.
=31	=31	=31	=31	=31	=31	=31
.	.	(8qaa#X/	.	.	.	.
!	!	!	!	!LO:N:vis=1	!	!
8c/L 8e	.	8b\L) 8bb	.	2.r	.	.
.	.	(8qaa#/	.	.	.	.
8e'/J 8g	.	8b\) 8bb	.	.	.	.
.	.	(8qaa#/	.	.	.	.
8c'/ 8e	.	8b\) 8bb	.	.	.	.
.	.	(8qaa#/	.	.	.	.
8r	.	8b\) 8bb	.	.	.	.
.	.	(8qaa#/	.	.	.	.
8r	.	8b\) 8bb	.	.	.	.
.	.	(8qaa#/	.	.	.	.
8e'/ 8g	.	8b\J) 8bb	.	.	.	.
=32	=32	=32	=32	=32	=32	=32
.	.	(8qaa#X/	.	.	.	.
!	!	!	!	!LO:N:vis=1	!	!
8c'/L 8e	.	8b\L) 8bb	.	2.r	.	.
.	.	(8qaa#/	.	.	.	.
8e'/J 8g	.	8b\) 8bb	.	.	.	.
.	.	(8qaa#/	.	.	.	.
(16c/LL 16e	.	8b\) 8bb	.	.	.	.
16d/ 16f#	.	.	.	.	.	.
.	.	(8qaa#/	.	.	.	.
16e/ 16g	.	8b\) 8bb	.	.	.	.
16d/JJ) 16f#	.	.	.	.	.	.
.	.	(8qaa#/	.	.	.	.
4c/ 4e	.	8b\) 8bb	.	.	.	.
.	.	(8qaa#/	.	.	.	.
.	.	8b\J) 8bb	.	.	.	.
=33	=33	=33	=33	=33	=33	=33
.	.	(8qaa#X/	.	.	.	.
8d'/L 8f#	.	8b\L) 8bb	.	4r	.	.
.	.	(8qaa#/	.	.	.	.
8B'/J 8d	.	8b\) 8bb	.	.	.	.
.	.	(8qaa#/	.	.	.	.
8d'/ 8f#	.	8b\) 8bb	.	4r	.	.
.	.	(8qaa#/	.	.	.	.
8r	.	8b\J) 8bb	.	.	.	.
*clefF4	*	*	*	*	*	*
4GG/ 4D	.	8b\L 8dd 8gg 8bb	.	8r	.	.
!	!	!	!	!	!	!LO:DY:a
.	.	8b\J 8dd 8gg 8bb	.	8D\	Z u-	f
!!LO:LB:g=original	!	!	!	!	!	!
=34	=34	=34	=34	=34	=34	=34
8GG/L 8E	.	8a\L 8cc#X 8ee 8aa	.	8E\	-śmie-	.
8G/J	.	8a\ 8cc# 8ee 8aa	.	8G\	-chem	.
4.d\	.	8a\ 8cc# 8ee 8aa	.	4.d\	sła-	.
.	.	8a\ 8cc# 8ee 8aa	.	.	.	.
.	.	8a\ 8cc# 8ee 8aa	.	.	.	.
8c#X\	.	8a\J 8cc# 8ee 8aa	.	8c#X\	-wić	.
=35	=35	=35	=35	=35	=35	=35
4.A\	.	8a\L 8cc#X 8ee 8aa	.	4.A\	bę-	.
.	.	8g\J 8cc# 8ee 8gg	.	.	.	.
.	.	8g\L 8cc# 8ee 8gg	.	.	.	.
8A\	.	8f#\J 8ccn 8dd 8ff#	.	8A\	-dzie	.
8cn\L	.	8e/L 8f# 8a 8ee	.	8cn\	jej	.
8B\J	.	8d/J 8f# 8a 8dd	.	8B\	po-	.
=36	=36	=36	=36	=36	=36	=36
*^	*	*	*	*	*	*
(2G/	[2.GG\	.	8d/L 8g 8b 8dd	.	(2G\	-wa-	.
.	.	.	8d/ 8g 8b 8dd	.	.	.	.
.	.	.	8d/ 8g 8b 8dd	.	.	.	.
.	.	.	8d/ 8g 8b 8dd	.	.	.	.
8F#/L	.	.	8e/ 8a 8cc 8ee	.	8F#\L	.	.
8D/J	.	.	8e/J 8a 8cc 8ee	.	8D\J)	.	.
=37	=37	=37	=37	=37	=37	=37	=37
2G/)	2.GG\]	.	8d/L 8g 8b 8dd	>	[4G\	-by	.
.	.	.	8d/J 8g 8b 8dd	.	.	.	.
.	.	.	8g\L 8b 8dd 8gg	.	8G\]	.	.
.	.	.	8f#\J 8b 8dd 8ff#	.	8r	.	.
!	!	!	!	!	!	!	!LO:DY:a
4BB/	.	.	8e/L 8g 8b 8ee	.	4BB/	Po-	p
.	.	.	8d/J 8g 8b 8dd	]	.	.	.
=38	=38	=38	=38	=38	=38	=38	=38
(8C/L	2GG\	.	8e-X/L 8g 8ee-X	p	8C/	-chleb-	.
!	!	!	!	!	!	!	!LO:DY:a
8D/J	.	.	8d/J 8g 8b 8dd	.	8D\	-nem	<
4E-X/)	.	.	8c/L 8e-X 8g 8cc	.	4E-X\	sło-	.
.	.	.	8c/ 8e- 8g 8cc	.	.	.	.
4B/	4rAA	.	8c/ 8e- 8g 8cc	.	4B\	-wem	.
.	.	.	8c/J 8e- 8g 8cc	.	.	.	[[
*v	*v	*	*	*	*	*	*
!!LO:LB:g=original	!	!	!	!	!	!
=39	=39	=39	=39	=39	=39	=39
(4.A\	.	8c/L 8e-X 8g 8cc	.	4.A\	zys-	.
.	.	8c/J 8e- 8g 8cc	.	.	.	.
.	.	8g\L 8cc 8ee-X 8gg	.	.	.	.
8G\	.	8g\J 8cc 8ee- 8gg	.	8G\	-ka	.
8A\L	.	8f#/L 8cc 8ff#	.	8A\	za-	.
8E\J)	.	8A/J 8f# 8a	.	8C/	-u-	.
=40	=40	=40	=40	=40	=40	=40
*^	*	*	*	*	*	*
(4D/	[2.GG\	.	8B/L 8g 8b	.	(4D\	-fa-	.
.	.	.	8B/ 8g 8b	.	.	.	.
4G/	.	.	8B/ 8g 8b	.	4G\	.	.
.	.	.	8B/ 8g 8b	.	.	.	.
8E-X/L	.	.	8B/ 8g 8b	.	8E-X\L	.	.
8BB/J	.	.	8B/J 8g 8b	.	8BB\J)	.	.
=41	=41	=41	=41	=41	=41	=41	=41
2D/)	2GG\]	.	8B/L 8g 8b	>	2D\	-nie.	.
.	.	.	8B/ 8g 8b	.	.	.	.
.	.	.	8B/ 8g 8b	.	.	.	.
.	.	.	8B/ 8g 8b	.	.	.	.
8GG/L	4rEEyy	.	8B/ 8g 8b	.	8r	.	.
!	!	!	!	!	!	!	!LO:DY:a
8FF#/J	.	.	8B/J 8g 8b	]	8B\	A	f
*v	*v	*	*	*	*	*	*
=42	=42	=42	=42	=42	=42	=42
8FFn^/L	.	8c/L 8a 8cc	fp	2.c\	po-	.
8EE'/	.	8c/ 8a 8cc	.	.	.	.
8FF'/	.	8c/ 8a 8cc	.	.	.	.
8AA'/	.	8c/ 8a 8cc	.	.	.	.
8C'/	.	8c/ 8a 8cc	.	.	.	.
8D'/J	.	8c/J 8a 8cc	.	.	.	.
=43	=43	=43	=43	=43	=43	=43
8E^/L	.	8B/L 8g 8b	fp	2B\	-tem	.
8D#X'/	.	8B/ 8g 8b	.	.	.	.
8E'/	.	8B/ 8g 8b	.	.	.	.
8C'/	.	8B/ 8g 8b	.	.	.	.
8BB'/	.	8B/ 8g 8b	.	4r	.	.
8AA'/J	.	8B/J 8g 8b	.	.	.	.
!!LO:LB:g=original	!	!	!	!	!	!
=44	=44	=44	=44	=44	=44	=44
8GG^/L	.	8d/L 8b-X 8dd	fp	2.d\	zem-	.
8FF#X'/	.	8d/ 8b- 8dd	.	.	.	.
8GG'/	.	8d/ 8b- 8dd	.	.	.	.
8BB-X'/	.	8d/ 8b- 8dd	.	.	.	.
8D'/	.	8d/ 8b- 8dd	.	.	.	.
8E'/J	.	8d/J 8b- 8dd	.	.	.	.
=45	=45	=45	=45	=45	=45	=45
8Fn^/L	.	8c/L 8a-X 8cc	fp	4c\	-sta!	.
8E'/	.	8c/ 8a- 8cc	.	.	.	.
8F'/	.	8c/ 8a- 8cc	.	4r	.	.
8C'/	.	8c/ 8a- 8cc	.	.	.	.
8AA-X'/	.	8c/ 8a- 8cc	.	4c\	Lecz	.
8FFn'/J	.	8c/J 8a- 8cc	.	.	.	.
=46	=46	=46	=46	=46	=46	=46
8GG'/L	.	8B/L 8g 8b	.	4B\	jam	.
8AA'/	.	8B/ 8g 8b	.	.	.	.
8BB-X'/	.	8B-X/ 8g-X 8b-X	.	4B-X\	ta-	.
8C'/	.	8B-/ 8g- 8b-	.	.	.	.
8C#X'/	.	8A/ 8fn 8a	.	4A\	-ki	.
8D'/J	.	8A/J 8f 8a	.	.	.	.
=47	=47	=47	=47	=47	=47	=47
8AA#X'/L	.	8G#X/L 8e 8g#X	.	(4G#X\	sła-	.
8BB'/J	.	8G#/ 8e 8g#	.	.	.	.
!	!	!LO:TX:b:i:t=ritardando	!	!	!	!LO:DY:a
!	!	!	!	!LO:TX:t=ri_tar_dan_do:dur=4q:ext=ud:problem:text with extention lines	!	!
8Cn'/	.	8Gn/ 8e-X 8gn	.	4Gn\	.	>
8r	.	8G/ 8e- 8g	.	.	.	.
8GG#X'/L	.	8F#X/ 8d 8f#X	.	4F#X\	.	]
8AAn'/J	.	8F#/J 8d 8f#	.	.	.	.
*	*	*clefF4	*	*	*	*
=48	=48	=48	=48	=48	=48	=48
8BB-X'/	.	8Fn\L 8d-X 8fn	.	4Fn\)	.	.
8r	.	8F\ 8d- 8f	.	.	.	.
8FF#X'/L	.	8En\ 8c 8en	>	[4E\	-by.	.
8GG#X'/	.	8E\ 8c 8e	.	.	.	.
8AAn'/	.	8E\ 8c 8e	.	8E\]	.	.
8FF#'/J	.	8E\J 8c 8e	]	8r	.	.
!!LO:LB:g=original	!	!	!	!	!	!
=49	=49	=49	=49	=49	=49	=49
(4AA/	.	8F#X\L 8c 8e	p	4r	.	.
.	.	8F#\J 8c 8e	.	.	.	.
!	!	!LO:TX:b:i:t=colla parte	!	!	!	!
4BBn/)	.	4F#\ 4B 4d#X	.	8r	.	.
!	!	!	!	!LO:TX:a:i:t=ad lib.	!	!LO:DY:a
.	.	.	.	8D#X\	Ro-	p
4r	.	4r	.	8E\	-zer-	.
.	.	.	.	8F#X\	-wać	.
*	*	*clefG2	*	*	*	*
=50	=50	=50	=50	=50	=50	=50
4BB/	.	4G/ 4B 4e	p	(8G\L	wię-	.
.	.	.	.	8c\J)	.	.
8.r	.	8.r	.	4B\	-zy	.
*clefG2	*	*	*	*	*	*
(16d#X/ 16a#X	.	(<16cc\ (>16ff# (>16ccc	f	.	.	.
!	!	!LO:TX:a:B:t=Allegro.	!	!LO:TX:a:B:t=Allegro.	!	!
8e/L) 8g	.	8b\L) 8gg) 8bb)	.	4r	.	.
16rf	.	16r	.	.	.	.
(16d#/Jk 16a#	.	(16cc\Jk 16ff# 16ccc	.	.	.	.
=51	=51	=51	=51	=51	=51	=51
8e/L) 8g	.	8b\L) 8gg 8bb	.	2.r	.	.
16r	.	16r	.	.	.	.
(16d#X/Jk 16a#X 16cc	.	(16ff#\Jk 16ccc 16fff#	.	.	.	.
8e/) 8g 8b	.	8gg\) 8bb 8ggg	.	.	.	.
8r	.	8r	.	.	.	.
4r	.	4r	.	.	.	.
*clefF4	*	*clefF4	*	*	*	*
=52	=52	=52	=52	=52	=52	=52
!	!	!LO:TX:a:B:t=Più lento.	!	!LO:TX:a:B:t=Più lento.	!	!
2.r	.	[2.D#X\ [2.A [2.c	p	2.r	.	.
=53	=53	=53	=53	=53	=53	=53
4r	.	2.D#\] 2.A] 2.c]	.	4.G\	Na	.
2BBB/	.	.	.	.	.	.
.	.	.	.	8F#\	to	.
.	.	.	.	8D#X\	sił	.
.	.	.	.	8C/	nie	.
!!LO:PB:g=original	!	!	!	!	!	!
=54||	=54||	=54||	=54||	=54||	=54||	=54||
*M4/4	*	*M4/4	*	*M4/4	*	*
*met(c)	*	*met(c)	*	*met(c)	*	*
!	!	!	!	!LO:TX:a:B:t=Allegro non troppo.	!	!
(16EE/LL	.	[1E [1G [1B	p	(4.BB/	star-	.
16DD#X/	.	.	.	.	.	.
16EE/	.	.	.	.	.	.
16BBB/JJ	.	.	.	.	.	.
16EE/LL	.	.	.	.	.	.
16FF#/	.	.	.	.	.	.
16GG/	.	.	.	8C/)	.	.
16AA/JJ	.	.	.	.	.	.
16BB/LL	.	.	.	[2BB/	-czy	.
16AA#X/	.	.	.	.	.	.
16BB/	.	.	.	.	.	.
16C/JJ	.	.	.	.	.	.
16BB/LL	.	.	.	.	.	.
16AAn/	.	.	.	.	.	.
16GG/	.	.	.	.	.	.
16FF#/JJ)	.	.	.	.	.	.
=55	=55	=55	=55	=55	=55	=55
(16EE/LL	.	2E\] 2G] 2B]	<	4BB/]	.	.
16DD#X/	.	.	.	.	.	.
16EE/	.	.	.	.	.	.
16BBB/JJ	.	.	.	.	.	.
16EE/LL	.	.	.	4r	.	.
16FF#/	.	.	.	.	.	.
16GG/	.	.	.	.	.	.
16AA/JJ	.	.	.	.	.	.
16BB/LL	.	4ryy	.	4r	.	.
16C/	.	.	.	.	.	.
16BB/	.	.	.	.	.	.
16AA/JJ	.	.	.	.	.	.
*	*	*clefG2	*	*	*	*
!	!	!	!	!	!	!LO:DY:a
16GG/LL	.	4E/ 4g	.	4E\	O!	f
16AA/	.	.	.	.	.	.
16GG/	.	.	.	.	.	.
16FF#/JJ)	.	.	.	.	.	.
=56	=56	=56	=56	=56	=56	=56
(16FFn/LL	.	2d/ 2a 2dd	f	(2d\	zem-	.
16EE/	.	.	.	.	.	.
16FF/	.	.	.	.	.	.
16AAA/JJ	.	.	.	.	.	.
16EE/LL	.	.	.	.	.	.
16FF/	.	.	.	.	.	.
16GG/	.	.	.	.	.	.
16FF/JJ)	.	.	.	.	.	.
(16EE/LL	.	2c#X/ 2e 2g#X 2cc#X	.	2c#X\)	.	.
16DD#X/	.	.	.	.	.	.
16EE/	.	.	.	.	.	.
16GGG#X/JJ	.	.	.	.	.	.
16DD#/LL	.	.	.	.	.	.
16EE/	.	.	.	.	.	.
16FF/	.	.	.	.	.	.
16EE/JJ)	.	.	.	.	.	.
!!LO:LB:g=original	!	!	!	!	!	!
=57	=57	=57	=57	=57	=57	=57
(16DD#X/LL	.	2cn/ 2fn 2a 2ccn	.	2.cn\	-sto!	.
16DDn/	.	.	.	.	.	.
16DD#X/	.	.	.	.	.	.
16AAA/JJ	.	.	.	.	.	.
16BBB/LL	.	.	.	.	.	.
16CC/	.	.	.	.	.	.
16DDn/	.	.	.	.	.	.
16DD#X/JJ)	.	.	.	.	.	.
(16EE/LL	.	4c/ 4e 4a 4cc	.	.	.	.
16DD#/	.	.	.	.	.	.
16EE/	.	.	.	.	.	.
16AAA/JJ	.	.	.	.	.	.
16BBB/LL	.	4e^/	.	4r	.	.
16CC/	.	.	.	.	.	.
16DDn/	.	.	.	.	.	.
16EE/JJ)	.	.	.	.	.	.
=58	=58	=58	=58	=58	=58	=58
(16EE#X/LL	.	2c#X/ 2g#X 2cc#X	p	1r	.	.
16DD#X/	.	.	.	.	.	.
16EE#/	.	.	.	.	.	.
16CC#X/JJ	.	.	.	.	.	.
16GGG#X/LL	.	.	.	.	.	.
16CC#/	.	.	.	.	.	.
16DD#/	.	.	.	.	.	.
16EE#/JJ)	.	.	.	.	.	.
(16GGn/LL	.	2cn/ 2e 2gn 2ccn	.	.	.	.
16FF#/	.	.	.	.	.	.
16GG/	.	.	.	.	.	.
16EEn/JJ	.	.	.	.	.	.
16CCn/LL	.	.	.	.	.	.
16EE/	.	.	.	.	.	.
16FFn/	.	.	.	.	.	.
16GG/JJ)	.	.	.	.	.	.
!!LO:LB:g=original	!	!	!	!	!	!
=59	=59	=59	=59	=59	=59	=59
(16AA/LL	.	4F#X/ 4B 4d#X	<	2r	.	.
16GG/	.	.	.	.	.	.
16AA/	.	.	.	.	.	.
16BB/JJ	.	.	.	.	.	.
16Dn/LL	.	4B/ 4f#	.	.	.	.
16C/	.	.	.	.	.	.
16BB/	.	.	.	.	.	.
16AA/JJ	.	.	.	.	.	.
16BB/LL	.	4d#^^/ 4f# 4b	[	4r	.	.
16AA/	.	.	.	.	.	.
16GG/	.	.	.	.	.	.
16FF#/JJ	.	.	.	.	.	.
!	!	!	!	!	!	!LO:DY:a
16GG/LL	.	4B/ 4b	f	4B\	O!	f
16AA/	.	.	.	.	.	.
16BB/	.	.	.	.	.	.
16AA/JJ)	.	.	.	.	.	.
=60	=60	=60	=60	=60	=60	=60
(16GG#X/LL	.	[1e [1g#X [1cc#X [1ee	.	[1e	zem-	.
16GGG#X/	.	.	.	.	.	.
16AAA#X/	.	.	.	.	.	.
16GGG#/JJ	.	.	.	.	.	.
16AAA#/LL	.	.	.	.	.	.
16GGG#/	.	.	.	.	.	.
16AAA#/	.	.	.	.	.	.
16BBB#X/JJ	.	.	.	.	.	.
16CC#X/LL	.	.	.	.	.	.
16BBB#/	.	.	.	.	.	.
16CC#/	.	.	.	.	.	.
16DD#X/JJ	.	.	.	.	.	.
16EE/LL	.	.	.	.	.	.
16DD#/	.	.	.	.	.	.
16EE/	.	.	.	.	.	.
16FF#/JJ)	.	.	.	.	.	.
=61	=61	=61	=61	=61	=61	=61
(16GG#X/LL	.	2e/] 2g#] 2cc#] 2ee]	.	2e\]	.	.
16AA/	.	.	.	.	.	.
16GG#/	.	.	.	.	.	.
16AA/JJ	.	.	.	.	.	.
16GG#/LL	.	.	.	.	.	.
16AA/	.	.	.	.	.	.
16GG#/	.	.	.	.	.	.
16AA/JJ	.	.	.	.	.	.
16GG#/LL	.	2c#X/ 2e 2g#X 2cc#X	.	2c#X\	-sto,	.
16AA/	.	.	.	.	.	.
16GG#/	.	.	.	.	.	.
16AA/JJ	.	.	.	.	.	.
16GG#/LL	.	.	.	.	.	.
16AA/	.	.	.	.	.	.
16GG#/	.	.	.	.	.	.
16AA/JJ)	.	.	.	.	.	.
!!LO:LB:g=original	!	!	!	!	!	!
=62	=62	=62	=62	=62	=62	=62
(16GG#X/LL	.	2B/ 2d#X 2g#X 2b	.	[1B	wspie-	.
16GGG#X/	.	.	.	.	.	.
16BBB/	.	.	.	.	.	.
16DD#X/JJ	.	.	.	.	.	.
16GG#/LL	.	.	.	.	.	.
16AA#X/	.	.	.	.	.	.
16GG#/	.	.	.	.	.	.
16BB/JJ)	.	.	.	.	.	.
(16GGn/LL	.	2B/ 2dn 2fn 2b	.	.	.	.
16GGGn/	.	.	.	.	.	.
16BBB/	.	.	.	.	.	.
16DDn/JJ	.	.	.	.	.	.
16GG/LL	.	.	.	.	.	.
16AAn/	.	.	.	.	.	.
16GG/	.	.	.	.	.	.
16AA/JJ)	.	.	.	.	.	.
=63	=63	=63	=63	=63	=63	=63
*	*	*	*	*^	*	*
(16BB/LL	.	2A/ 2d#X 2f#X 2b	.	2B\]	2rEEyy	.	.
16BBB/	.	.	.	.	.	.	.
16DD#X/	.	.	.	.	.	.	.
16FF#X/JJ	.	.	.	.	.	.	.
16BB/LL	.	.	.	.	.	.	.
16C/	.	.	.	.	.	.	.
16BB/	.	.	.	.	.	.	.
16C/JJ)	.	.	.	.	.	.	.
*	*	*clefF4	*	*	*	*	*
(16BB/LL	.	2D#X\ 2A 2B 2d#X	.	2d#X/	2D#X\	-raj	.
16BBB/	.	.	.	.	.	.	.
16DD#/	.	.	.	.	.	.	.
16FF#/JJ	.	.	.	.	.	.	.
16BB/LL	.	.	.	.	.	.	.
16AA/	.	.	.	.	.	.	.
16GG/	.	.	.	.	.	.	.
16FF#/JJ)	.	.	.	.	.	.	.
=64	=64	=64	=64	=64	=64	=64	=64
(16EE/LL	.	1E 1G 1B 1e	.	[1e	[1E	mnie!	.
16DD#X/	.	.	.	.	.	.	.
16EE/	.	.	.	.	.	.	.
16BBB/JJ	.	.	.	.	.	.	.
16EE/LL	.	.	.	.	.	.	.
16FF#/	.	.	.	.	.	.	.
16GG/	.	.	.	.	.	.	.
16AA/JJ	.	.	.	.	.	.	.
16BB/LL	.	.	.	.	.	.	.
16AA#X/	.	.	.	.	.	.	.
16BB/	.	.	.	.	.	.	.
16C/JJ	.	.	.	.	.	.	.
16BB/LL	.	.	.	.	.	.	.
16AAn/	.	.	.	.	.	.	.
16GG/	.	.	.	.	.	.	.
16FF#/JJ)	.	.	.	.	.	.	.
!!LO:LB:g=original	!	!	!	!	!	!	!
=65	=65	=65	=65	=65	=65	=65	=65
(16EE/LL	.	(16E\LL	.	4e/]	4E\]	.	.
16DD#X/	.	16D#X\	.	.	.	.	.
16EE/	.	16E\	.	.	.	.	.
16BBB/JJ	.	16BB\JJ	.	.	.	.	.
16EE/LL	.	16E\LL	.	4rC	4rEEyy	.	.
16FF#/	.	16F#\	.	.	.	.	.
16GG/	.	16G\	.	.	.	.	.
16AA/JJ	.	16A\JJ	.	.	.	.	.
16BB/LL	.	16B\LL	.	2rD	2rEEyy	.	.
16AA#X/	.	16A#X\	.	.	.	.	.
16BB/	.	16B\	.	.	.	.	.
16C/JJ	.	16c\JJ	.	.	.	.	.
16BB/LL	.	16B\LL	.	.	.	.	.
16AAn/	.	16An\	.	.	.	.	.
16GG/	.	16G\	.	.	.	.	.
16FF#/JJ)	.	16F#\JJ)	.	.	.	.	.
*	*	*	*	*v	*v	*	*
=66	=66	=66	=66	=66	=66	=66
(16EE/LL	.	(16E\LL	.	1r	.	.
16DD#X/	.	16D#X\	.	.	.	.
16EE/	.	16E\	.	.	.	.
16BBB/JJ	.	16BB\JJ	.	.	.	.
16EE/LL	.	16E\LL	.	.	.	.
16DD#/	.	16D#\	.	.	.	.
16EE/	.	16E\	.	.	.	.
16BBB/JJ	.	16BB\JJ	.	.	.	.
16EE/LL	.	16E\LL	.	.	.	.
16DD#/	.	16D#\	.	.	.	.
16EE/	.	16E\	.	.	.	.
16BBB/JJ	.	16BB\JJ	.	.	.	.
16EE/LL	.	16E\LL	.	.	.	.
16DD#/	.	16D#\	.	.	.	.
16EE/	.	16E\	.	.	.	.
16BBB/JJ)	.	16BB\JJ)	.	.	.	.
=67	=67	=67	=67	=67	=67	=67
8EE^^/L	.	8E^^\L	<	1r;	.	.
8EE^^/	.	8E^^\	.	.	.	.
8EE^^/	.	8E^^\	.	.	.	.
8EE^^/J	.	8E^^\J	[	.	.	.
8EE^^/L	.	8E^^\L	.	.	.	.
8EE^^/J	.	8E^^\J	.	.	.	.
8EE^^/	.	8E^^\	sf	.	.	.
16r;	.	16r;	.	.	.	.
*	*	*clefG2	*	*	*	*
16CC/ 16C	.	16G/ 16c 16e 16g	ff	.	.	.
=||	=||	=||	=||	=||	=||	=||
*-	*-	*-	*-	*-	*-	*-
!!!system-decoration: s1{(s2,s3)}
!!!RDF**kern: N = linked
!!!RDF**kern: > = above
!!!RDF**kern: < = below
!!!ENC: Solarz Mateusz
!!!END: 2022-09-29
!!!ENC: Natalia Wrzos
!!!END: 2022-10-20
!!!YEC: Copyright 2022 Narodowy Instytut Fryderyka Chopina (https://polishscores.org)
!!!YEM: License CC-BY-4.0 (https://creativecommons.org/licenses/by/4.0)
